images/service/6.svg

<svg width="48" height="48" viewBox="0 0 48 48" fill="none" xmlns="http://www.w3.org/2000/svg">
<g clip-path="url(#clip0_84_3616)">
<mask id="mask0_84_3616" style="mask-type:luminance" maskUnits="userSpaceOnUse" x="0" y="0" width="48" height="48">
<path d="M0 3.8147e-06H48V48H0V3.8147e-06Z" fill="white"/>
</mask>
<g mask="url(#mask0_84_3616)">
<path fill-rule="evenodd" clip-rule="evenodd" d="M13.1832 32.2685C11.0893 32.9756 8.78493 32.137 7.63541 30.2493L7.04893 30.6065L7.63541 30.2493L3.73832 23.8499C2.02673 21.0392 1.68559 17.603 2.81113 14.5107L6.77385 3.6233L6.11313 3.38282L6.77385 3.6233C7.41007 1.87527 9.34293 0.973949 11.091 1.61016L28.9451 8.10854L29.1856 7.44782L28.9451 8.10854C30.6931 8.74475 31.5944 10.6777 30.9582 12.4257L26.9955 23.3131C25.87 26.4054 23.3998 28.8184 20.2821 29.8713L13.1832 32.2685L13.1832 32.2685ZM13.6331 33.6009C10.9161 34.5184 7.92595 33.4302 6.43434 30.9807L2.53725 24.5813L3.13779 24.2156L2.53725 24.5813C0.603465 21.4058 0.218042 17.5235 1.48969 14.0297L5.45241 3.14233C6.35425 0.664494 9.09408 -0.613121 11.5719 0.288723L29.426 6.78709C31.9039 7.68894 33.1815 10.4289 32.2797 12.9067L28.3169 23.7941C27.0453 27.2878 24.2545 30.0141 20.732 31.2037L20.5223 30.5826L20.732 31.2037L13.6332 33.6009C13.6332 33.6009 13.6332 33.6009 13.6331 33.6009Z" fill="url(#paint0_linear_84_3616)"/>
<path fill-rule="evenodd" clip-rule="evenodd" d="M18.5583 23.6558C17.1359 25.3162 14.7831 26.01 12.6081 25.2184L12.3676 25.8791L12.6081 25.2184C10.4331 24.4267 9.07672 22.3829 9.05451 20.1967C10.2767 21.212 11.7977 22.0872 13.5196 22.7139L13.5196 22.7139C15.2417 23.3407 16.9693 23.6479 18.5583 23.6558ZM12.1272 26.5399C15.4115 27.7352 19.0133 26.2441 20.5404 23.1936C20.6562 22.9624 20.6357 22.6864 20.4871 22.4748C20.3386 22.2632 20.0859 22.1502 19.8291 22.1806C18.1213 22.3826 16.0761 22.1479 14.0006 21.3925C11.9252 20.6371 10.2076 19.5022 9.02926 18.2498C8.8521 18.0615 8.5859 17.9856 8.33609 18.0521C8.08627 18.1187 7.89314 18.317 7.83319 18.5685C7.04209 21.887 8.84287 25.3444 12.1272 26.5399L12.1272 26.5399Z" fill="url(#paint1_linear_84_3616)"/>
<path fill-rule="evenodd" clip-rule="evenodd" d="M13.7011 15.43C14.0778 15.3357 14.3068 14.954 14.2125 14.5772C13.9155 13.39 12.9825 12.356 11.6845 11.8836M13.7011 15.43C13.3243 15.5242 12.9425 15.2952 12.8483 14.9185L13.7011 15.43ZM12.8483 14.9185C12.6721 14.2141 12.0922 13.5284 11.2035 13.205L12.8483 14.9185ZM7.86001 13.3041C8.08801 13.6184 8.52766 13.6884 8.84201 13.4604C9.42995 13.034 10.3149 12.8815 11.2035 13.205L11.2035 13.205M7.86001 13.3041C7.63202 12.9897 7.70202 12.5501 8.01637 12.3221L7.86001 13.3041ZM8.01637 12.3221C9.00717 11.6035 10.3865 11.4111 11.6845 11.8836L8.01637 12.3221Z" fill="url(#paint2_linear_84_3616)"/>
<path fill-rule="evenodd" clip-rule="evenodd" d="M23.9034 19.1439C24.2801 19.0496 24.5091 18.6678 24.4148 18.2911C24.1178 17.1038 23.1848 16.0698 21.8868 15.5974M23.9034 19.1439C23.5266 19.2381 23.1449 19.0091 23.0506 18.6324L23.9034 19.1439ZM23.0506 18.6324C22.8744 17.9279 22.2945 17.2423 21.4059 16.9189L23.0506 18.6324ZM18.0623 17.0178C18.2903 17.3322 18.7299 17.4022 19.0443 17.1742C19.6323 16.7479 20.5172 16.5954 21.4058 16.9189L21.4059 16.9189M18.0623 17.0178C17.8343 16.7034 17.9044 16.2638 18.2187 16.0358L18.0623 17.0178ZM18.2187 16.0358C19.2095 15.3173 20.5888 15.125 21.8868 15.5974L18.2187 16.0358Z" fill="url(#paint3_linear_84_3616)"/>
<path fill-rule="evenodd" clip-rule="evenodd" d="M15.8157 10.5254C15.9485 10.1605 15.7604 9.75706 15.3955 9.62424C13.3684 8.88646 11.6484 8.83528 10.4224 8.97638C9.81062 9.04679 9.32343 9.16483 8.98332 9.26797C8.81321 9.31955 8.67964 9.36749 8.58538 9.40402C8.53824 9.42229 8.50089 9.43773 8.47368 9.44936C8.46008 9.45518 8.449 9.46005 8.4405 9.46385C8.43625 9.46575 8.43264 9.46739 8.42968 9.46874L8.42572 9.47055L8.42411 9.4713L8.4234 9.47163C8.42307 9.47178 8.42275 9.47193 8.71989 10.1092L8.42275 9.47193C8.0708 9.63604 7.91853 10.0544 8.08264 10.4063C8.2463 10.7573 8.66276 10.9097 9.01409 10.7478C9.0142 10.7478 9.01434 10.7477 9.01449 10.7476C9.0161 10.7469 9.02014 10.7451 9.02658 10.7424C9.03946 10.7369 9.06191 10.7275 9.09359 10.7152C9.15696 10.6907 9.25713 10.6544 9.39141 10.6137C9.6601 10.5322 10.0643 10.4331 10.5831 10.3734C11.6182 10.2543 13.1157 10.291 14.9145 10.9457C15.2794 11.0785 15.6829 10.8904 15.8157 10.5254ZM9.01645 10.7467C9.01645 10.7467 9.01645 10.7467 9.01645 10.7467C9.01645 10.7467 9.01645 10.7467 9.01645 10.7467L9.01645 10.7467Z" fill="url(#paint4_linear_84_3616)"/>
<path fill-rule="evenodd" clip-rule="evenodd" d="M25.5959 16.7806C25.9478 16.6165 26.1001 16.1982 25.936 15.8462L25.2987 16.1434C25.936 15.8462 25.9358 15.8459 25.9357 15.8456L25.9353 15.8449L25.9346 15.8433L25.9327 15.8393C25.9313 15.8364 25.9296 15.8328 25.9276 15.8286C25.9235 15.8202 25.9182 15.8094 25.9115 15.7962C25.8981 15.7698 25.8794 15.734 25.8551 15.6897C25.8063 15.6011 25.7348 15.4785 25.6377 15.3297C25.4434 15.032 25.1461 14.6285 24.7227 14.1813C23.8742 13.2852 22.5237 12.2188 20.4966 11.4809C20.1317 11.3481 19.7282 11.5363 19.5954 11.9012C19.4626 12.2661 19.6507 12.6696 20.0156 12.8024C21.8144 13.4571 22.9853 14.3916 23.7016 15.1482C24.0606 15.5274 24.3066 15.8631 24.46 16.0982C24.5367 16.2157 24.5902 16.3079 24.6229 16.3674C24.6393 16.3972 24.6505 16.4188 24.6568 16.4313C24.66 16.4375 24.6619 16.4415 24.6627 16.4431C24.6628 16.4432 24.6628 16.4434 24.6629 16.4435C24.8279 16.7933 25.2449 16.9443 25.5959 16.7806Z" fill="url(#paint5_linear_84_3616)"/>
<path fill-rule="evenodd" clip-rule="evenodd" d="M40.3646 44.3254C39.215 46.2131 36.9107 47.0518 34.8168 46.3447L27.7179 43.9474C27.7179 43.9474 27.7179 43.9474 27.7179 43.9474C24.6001 42.8945 22.13 40.4815 21.0045 37.3893C21.0045 37.3893 21.0045 37.3893 21.0045 37.3893L19.7479 33.937C19.6151 33.572 19.2117 33.3839 18.8467 33.5167C18.4818 33.6495 18.2937 34.053 18.4265 34.4179L19.683 37.8703L19.683 37.8703C20.9547 41.364 23.7455 44.0902 27.268 45.2798L27.268 45.2798L34.3668 47.677C37.0839 48.5946 40.074 47.5062 41.5656 45.0568L45.4627 38.6575L44.8622 38.2917L45.4627 38.6575C47.3965 35.482 47.7819 31.5996 46.5104 28.1059L42.5477 17.2184C41.6458 14.7406 38.906 13.463 36.4281 14.3648L36.428 14.3648L33.2785 15.5112C32.9136 15.644 32.7255 16.0475 32.8583 16.4124C32.9911 16.7773 33.3946 16.9654 33.7595 16.8326L36.909 15.6863C38.6571 15.05 40.59 15.9514 41.2262 17.6994L45.1889 28.5868C46.3144 31.6791 45.9733 35.1154 44.2617 37.926L40.3646 44.3254L40.9651 44.6911L40.3646 44.3254Z" fill="url(#paint6_linear_84_3616)"/>
<path fill-rule="evenodd" clip-rule="evenodd" d="M29.28 41.405C29.5298 41.4716 29.796 41.3957 29.9732 41.2074C31.1515 39.9549 32.8691 38.8201 34.9445 38.0646L34.704 37.4039L34.9445 38.0646C37.02 37.3092 39.0652 37.0745 40.773 37.2765C41.0298 37.3069 41.2825 37.1939 41.4311 36.9823C41.5796 36.7707 41.6001 36.4947 41.4844 36.2635C39.9572 33.213 36.3554 31.7219 33.0711 32.9172L33.0711 32.9173C29.7868 34.1127 27.986 37.5701 28.7771 40.8886C28.8371 41.1401 29.0302 41.3384 29.28 41.405ZM29.9984 39.2604C30.0206 37.0742 31.377 35.0304 33.552 34.2387L33.3116 33.578L33.552 34.2387C35.7271 33.4471 38.0798 34.1409 39.5022 35.8013C37.9132 35.8092 36.1856 36.1164 34.4635 36.7432L34.4635 36.7432C32.7416 37.37 31.2207 38.2451 29.9984 39.2604ZM33.3116 33.578L33.3104 33.5749L33.3116 33.578Z" fill="url(#paint7_linear_84_3616)"/>
<path fill-rule="evenodd" clip-rule="evenodd" d="M26.8264 30.8624C26.0524 31.4057 25.1582 31.4885 24.4798 31.2296C24.117 31.0912 23.7107 31.2731 23.5722 31.6359C23.4338 31.9987 23.6156 32.405 23.9785 32.5435C25.122 32.9798 26.5039 32.8069 27.6344 32.0134L27.6345 32.0133C28.7649 31.2197 29.397 29.9788 29.3752 28.7551C29.3683 28.3668 29.048 28.0577 28.6597 28.0646C28.2715 28.0715 27.9623 28.3918 27.9692 28.7801C27.9821 29.5062 27.6004 30.319 26.8265 30.8624" fill="url(#paint8_linear_84_3616)"/>
<path fill-rule="evenodd" clip-rule="evenodd" d="M33.2268 27.3539C33.9966 28.3053 35.2785 28.8497 36.6547 28.7309C38.031 28.6122 39.2006 27.8562 39.7961 26.7871C39.9851 26.4478 39.8632 26.0196 39.524 25.8306C39.1847 25.6417 38.7565 25.7635 38.5676 26.1028C38.2142 26.7372 37.476 27.2486 36.5338 27.3299L36.5338 27.3299C35.5917 27.4112 34.7768 27.0339 34.32 26.4693C34.0757 26.1674 33.633 26.1207 33.3311 26.365C33.0292 26.6093 32.9825 27.052 33.2268 27.3539Z" fill="url(#paint9_linear_84_3616)"/>
<path fill-rule="evenodd" clip-rule="evenodd" d="M32.1843 24.6006C32.3171 24.9655 32.7206 25.1537 33.0855 25.0209C34.8843 24.3662 36.3818 24.3295 37.4169 24.4486C37.9357 24.5083 38.3399 24.6074 38.6086 24.6889C38.7429 24.7296 38.8431 24.7659 38.9064 24.7904C38.9381 24.8027 38.9606 24.812 38.9734 24.8176C38.9799 24.8203 38.9839 24.8221 38.9855 24.8228L38.985 24.8226L38.9841 24.8222L38.9836 24.8219C38.9833 24.8218 38.983 24.8216 39.2667 24.2132L38.983 24.8216C38.984 24.8221 38.985 24.8225 38.9859 24.823C38.9864 24.8232 38.9864 24.8232 38.9861 24.8231L38.9855 24.8228C38.9857 24.8229 38.9858 24.8229 38.9859 24.823C39.3373 24.9849 39.7537 24.8325 39.9174 24.4815C40.0815 24.1296 39.9292 23.7112 39.5773 23.5471L39.2801 24.1844C39.5773 23.5471 39.577 23.547 39.5766 23.5468L39.5759 23.5465L39.5743 23.5457L39.5703 23.5439C39.5674 23.5426 39.5638 23.5409 39.5595 23.539C39.551 23.5352 39.54 23.5304 39.5263 23.5246C39.4991 23.5129 39.4618 23.4975 39.4146 23.4792C39.3204 23.4427 39.1868 23.3947 39.0167 23.3432C38.6766 23.24 38.1894 23.122 37.5777 23.0516C36.3516 22.9105 34.6316 22.9617 32.6046 23.6994C32.2397 23.8323 32.0515 24.2357 32.1843 24.6006Z" fill="url(#paint10_linear_84_3616)"/>
</g>
</g>
<defs>
<linearGradient id="paint0_linear_84_3616" x1="0.751526" y1="16.9617" x2="32.5689" y2="16.9617" gradientUnits="userSpaceOnUse">
<stop stop-color="#0CBAF1"/>
<stop offset="1" stop-color="#E95CE9"/>
</linearGradient>
<linearGradient id="paint1_linear_84_3616" x1="7.64795" y1="22.4903" x2="20.6148" y2="22.4903" gradientUnits="userSpaceOnUse">
<stop stop-color="#0CBAF1"/>
<stop offset="1" stop-color="#E95CE9"/>
</linearGradient>
<linearGradient id="paint2_linear_84_3616" x1="7.72601" y1="13.5382" x2="14.2337" y2="13.5382" gradientUnits="userSpaceOnUse">
<stop stop-color="#0CBAF1"/>
<stop offset="1" stop-color="#E95CE9"/>
</linearGradient>
<linearGradient id="paint3_linear_84_3616" x1="17.9283" y1="17.252" x2="24.436" y2="17.252" gradientUnits="userSpaceOnUse">
<stop stop-color="#0CBAF1"/>
<stop offset="1" stop-color="#E95CE9"/>
</linearGradient>
<linearGradient id="paint4_linear_84_3616" x1="8.0166" y1="9.95108" x2="15.8583" y2="9.95108" gradientUnits="userSpaceOnUse">
<stop stop-color="#0CBAF1"/>
<stop offset="1" stop-color="#E95CE9"/>
</linearGradient>
<linearGradient id="paint5_linear_84_3616" x1="19.5528" y1="14.1425" x2="26.002" y2="14.1425" gradientUnits="userSpaceOnUse">
<stop stop-color="#0CBAF1"/>
<stop offset="1" stop-color="#E95CE9"/>
</linearGradient>
<linearGradient id="paint6_linear_84_3616" x1="18.3839" y1="31.0378" x2="47.2485" y2="31.0378" gradientUnits="userSpaceOnUse">
<stop stop-color="#0CBAF1"/>
<stop offset="1" stop-color="#E95CE9"/>
</linearGradient>
<linearGradient id="paint7_linear_84_3616" x1="28.5919" y1="36.9668" x2="41.5587" y2="36.9668" gradientUnits="userSpaceOnUse">
<stop stop-color="#0CBAF1"/>
<stop offset="1" stop-color="#E95CE9"/>
</linearGradient>
<linearGradient id="paint8_linear_84_3616" x1="23.5258" y1="30.4209" x2="29.3758" y2="30.4209" gradientUnits="userSpaceOnUse">
<stop stop-color="#0CBAF1"/>
<stop offset="1" stop-color="#E95CE9"/>
</linearGradient>
<linearGradient id="paint9_linear_84_3616" x1="33.0703" y1="27.2444" x2="39.8851" y2="27.2444" gradientUnits="userSpaceOnUse">
<stop stop-color="#0CBAF1"/>
<stop offset="1" stop-color="#E95CE9"/>
</linearGradient>
<linearGradient id="paint10_linear_84_3616" x1="32.1417" y1="24.0263" x2="39.9834" y2="24.0263" gradientUnits="userSpaceOnUse">
<stop stop-color="#0CBAF1"/>
<stop offset="1" stop-color="#E95CE9"/>
</linearGradient>
<clipPath id="clip0_84_3616">
<rect width="48" height="48" fill="white"/>
</clipPath>
</defs>
</svg>

<svg xmlns="http://www.w3.org/2000/svg" width="48" height="48" fill="none" viewBox="0 0 48 48"><g clip-path="url(#a)"><mask id="b" width="48" height="48" x="0" y="0" maskUnits="userSpaceOnUse" style="mask-type:luminance"><path fill="#fff" d="M0 0h48v48H0z"/></mask><g fill-rule="evenodd" clip-rule="evenodd" mask="url(#b)"><path fill="url(#c)" d="M13.183 32.269a4.725 4.725 0 0 1-5.548-2.02l-.586.358.586-.358-3.897-6.4a10.83 10.83 0 0 1-.927-9.338L6.774 3.623l-.66-.24.66.24A3.37 3.37 0 0 1 11.09 1.61L28.945 8.11l.24-.661-.24.66a3.37 3.37 0 0 1 2.013 4.318l-3.962 10.887a10.83 10.83 0 0 1-6.714 6.558zm.45 1.332a6.13 6.13 0 0 1-7.199-2.62l-3.897-6.4.6-.365-.6.365A12.24 12.24 0 0 1 1.49 14.03L5.452 3.142A4.775 4.775 0 0 1 11.572.29l17.854 6.498a4.775 4.775 0 0 1 2.854 6.12l-3.963 10.887a12.24 12.24 0 0 1-7.585 7.41l-.21-.621.21.62z"/><path fill="url(#d)" d="M18.558 23.656a5.4 5.4 0 0 1-5.95 1.562l-.24.661.24-.66a5.4 5.4 0 0 1-3.553-5.022c1.222 1.015 2.743 1.89 4.465 2.517s3.45.934 5.038.942m-6.43 2.884a6.81 6.81 0 0 0 8.412-3.346.703.703 0 0 0-.71-1.013c-1.709.202-3.754-.033-5.83-.789-2.075-.755-3.792-1.89-4.97-3.142a.703.703 0 0 0-1.197.319 6.81 6.81 0 0 0 4.294 7.97"/><path fill="url(#e)" d="M13.701 15.43a.703.703 0 0 0 .511-.853c-.296-1.187-1.23-2.221-2.527-2.693M13.7 15.43a.703.703 0 0 1-.853-.511zm-.853-.511c-.176-.705-.756-1.39-1.645-1.714zM7.86 13.304a.703.703 0 0 0 .982.156c.588-.426 1.473-.578 2.361-.255m-3.343.1a.703.703 0 0 1 .156-.983zm.156-.983c.991-.718 2.37-.91 3.669-.438z"/><path fill="url(#f)" d="M23.903 19.144a.703.703 0 0 0 .512-.853c-.297-1.187-1.23-2.221-2.528-2.694m2.016 3.547a.703.703 0 0 1-.852-.512zm-.852-.512c-.177-.704-.756-1.39-1.645-1.713zm-4.989-1.614a.703.703 0 0 0 .982.156c.588-.426 1.473-.579 2.362-.255m-3.344.099a.703.703 0 0 1 .157-.982zm.157-.982c.99-.719 2.37-.911 3.668-.439z"/><path fill="url(#g)" d="M15.816 10.525a.703.703 0 0 0-.42-.9c-2.028-.739-3.748-.79-4.974-.649a8 8 0 0 0-1.439.292 6 6 0 0 0-.553.2l-.004.003h-.002l.296.638-.297-.637a.703.703 0 0 0 .591 1.276l.013-.006.067-.027q.095-.038.297-.101c.27-.082.673-.18 1.192-.24 1.035-.12 2.533-.083 4.332.572a.703.703 0 0 0 .9-.42m-6.8.222"/><path fill="url(#h)" d="M25.596 16.78a.703.703 0 0 0 .34-.934l-.637.297.637-.297v-.001l-.001-.002-.002-.004-.005-.01a2 2 0 0 0-.073-.14 6 6 0 0 0-.217-.36 8 8 0 0 0-.915-1.148c-.849-.896-2.2-1.962-4.226-2.7a.703.703 0 0 0-.481 1.321c1.798.655 2.97 1.59 3.686 2.346.359.38.605.715.758.95a4 4 0 0 1 .197.333l.006.012c.165.35.582.501.933.338"/><path fill="url(#i)" d="M40.365 44.325a4.725 4.725 0 0 1-5.548 2.02l-7.1-2.398a10.83 10.83 0 0 1-6.712-6.558l-1.257-3.452a.703.703 0 1 0-1.322.48l1.257 3.453a12.24 12.24 0 0 0 7.585 7.41l7.099 2.397a6.13 6.13 0 0 0 7.199-2.62l3.897-6.4-.6-.365.6.365a12.24 12.24 0 0 0 1.047-10.551l-3.962-10.888a4.775 4.775 0 0 0-6.12-2.853l-3.15 1.146a.703.703 0 0 0 .482 1.322l3.149-1.147a3.37 3.37 0 0 1 4.317 2.013l3.963 10.888a10.83 10.83 0 0 1-.927 9.339zl.6.365z"/><path fill="url(#j)" d="M29.28 41.405c.25.067.516-.01.693-.198 1.178-1.252 2.896-2.387 4.971-3.142l-.24-.661.24.66c2.076-.755 4.121-.99 5.829-.788a.703.703 0 0 0 .711-1.013 6.81 6.81 0 0 0-8.413-3.346 6.81 6.81 0 0 0-4.294 7.972c.06.251.253.45.503.516m.718-2.145a5.4 5.4 0 0 1 3.554-5.021l-.24-.661.24.66a5.4 5.4 0 0 1 5.95 1.563c-1.589.008-3.316.315-5.038.942s-3.243 1.502-4.466 2.517m3.314-5.682-.002-.003z"/><path fill="url(#k)" d="M26.826 30.862c-.774.544-1.668.627-2.346.368a.703.703 0 0 0-.502 1.314c1.144.436 2.526.263 3.656-.53 1.13-.794 1.763-2.035 1.741-3.259a.703.703 0 1 0-1.406.025c.013.726-.369 1.539-1.143 2.082"/><path fill="url(#l)" d="M33.227 27.354c.77.951 2.052 1.496 3.428 1.377s2.546-.875 3.141-1.944a.703.703 0 0 0-1.228-.684c-.354.634-1.092 1.146-2.034 1.227s-1.757-.296-2.214-.86a.703.703 0 1 0-1.093.884"/><path fill="url(#m)" d="M32.184 24.6a.703.703 0 0 0 .902.42c1.798-.654 3.296-.69 4.33-.571.52.06.924.158 1.193.24a4 4 0 0 1 .364.129l.013.005h-.001l-.001-.001.283-.609-.284.609.003.001a.703.703 0 0 0 .591-1.276l-.297.637.297-.637h-.001l-.002-.001-.004-.002-.01-.005a2 2 0 0 0-.145-.06 6 6 0 0 0-.398-.136 8 8 0 0 0-1.44-.291c-1.225-.142-2.945-.09-4.972.647a.703.703 0 0 0-.42.902"/></g></g><defs><linearGradient id="c" x1=".752" x2="32.569" y1="16.962" y2="16.962" gradientUnits="userSpaceOnUse"><stop stop-color="#0cbaf1"/><stop offset="1" stop-color="#e95ce9"/></linearGradient><linearGradient id="d" x1="7.648" x2="20.615" y1="22.49" y2="22.49" gradientUnits="userSpaceOnUse"><stop stop-color="#0cbaf1"/><stop offset="1" stop-color="#e95ce9"/></linearGradient><linearGradient id="e" x1="7.726" x2="14.234" y1="13.538" y2="13.538" gradientUnits="userSpaceOnUse"><stop stop-color="#0cbaf1"/><stop offset="1" stop-color="#e95ce9"/></linearGradient><linearGradient id="f" x1="17.928" x2="24.436" y1="17.252" y2="17.252" gradientUnits="userSpaceOnUse"><stop stop-color="#0cbaf1"/><stop offset="1" stop-color="#e95ce9"/></linearGradient><linearGradient id="g" x1="8.017" x2="15.858" y1="9.951" y2="9.951" gradientUnits="userSpaceOnUse"><stop stop-color="#0cbaf1"/><stop offset="1" stop-color="#e95ce9"/></linearGradient><linearGradient id="h" x1="19.553" x2="26.002" y1="14.143" y2="14.143" gradientUnits="userSpaceOnUse"><stop stop-color="#0cbaf1"/><stop offset="1" stop-color="#e95ce9"/></linearGradient><linearGradient id="i" x1="18.384" x2="47.248" y1="31.038" y2="31.038" gradientUnits="userSpaceOnUse"><stop stop-color="#0cbaf1"/><stop offset="1" stop-color="#e95ce9"/></linearGradient><linearGradient id="j" x1="28.592" x2="41.559" y1="36.967" y2="36.967" gradientUnits="userSpaceOnUse"><stop stop-color="#0cbaf1"/><stop offset="1" stop-color="#e95ce9"/></linearGradient><linearGradient id="k" x1="23.526" x2="29.376" y1="30.421" y2="30.421" gradientUnits="userSpaceOnUse"><stop stop-color="#0cbaf1"/><stop offset="1" stop-color="#e95ce9"/></linearGradient><linearGradient id="l" x1="33.07" x2="39.885" y1="27.244" y2="27.244" gradientUnits="userSpaceOnUse"><stop stop-color="#0cbaf1"/><stop offset="1" stop-color="#e95ce9"/></linearGradient><linearGradient id="m" x1="32.142" x2="39.983" y1="24.026" y2="24.026" gradientUnits="userSpaceOnUse"><stop stop-color="#0cbaf1"/><stop offset="1" stop-color="#e95ce9"/></linearGradient><clipPath id="a"><path fill="#fff" d="M0 0h48v48H0z"/></clipPath></defs></svg>
